X:1
T:Gather with the Faithful
T:Gather with the Faithful
T:George T. Kirkpatrick
T:Frances Jane (Fanny) Crosby, 1898
T:Public Domain Courtesy of the Cyber Hymnal™
T:Public Domain Courtesy of the Cyber Hymnal™
C:George T. Kirkpatrick
Z:Public Domain
Z:Courtesy of the Cyber Hymnal™
%%score ( 1 2 ) ( 3 4 )
L:1/8
M:4/4
K:Ab
V:1 treble 
V:2 treble 
V:3 bass 
V:4 bass 
V:1
 [CE]4 [=B,=D]2 [CE]2 | [DF]4 [CE]4 | A4 [DG]2 [CA]2 | [DB]8 | [Ec]4 [DB]2 [CA]2 | [EG]4 [DF]4 | %6
w: 1.~Joy in my|sad- ness,|hope in my|tears;|Now let Thy|pre- sence|
w: 2.~Come when the|morn- ing|breaks on my|sight;|Come in the|noon- tide,|
w: 3.~Star of the|wea- ry,|rise on my|way;|Where Thou art|lead- ing,|
 [=DF]3 [DG] [DA]2 [Dc]2 | (z2 E2 F2 E2) | [CE]4 [=B,=D]2 [CE]2 | [DF]4 [CE]4 | A4 [DG]2 [CA]2 | %11
w: ban- ish all my||* fears. Lo,|I am|wait- ing, here|
w: love- ly, calm and||* bright; Come|when the|day- beams gent-|
w: joy- ful I o-||* bey. When,|o’er life’s|o- cean, storm|
 [EB]8 | [Ec]4 [DB]2 [CA]2 | [=EG]4 F4 | [DE]3 [DF] [DG]2 [DB]2 | [CA]6 z2[Q:1/4=90] || %16
w: at|Thy throne; O|my Re-|deem- er, leave me|not|
w: ly|have flown; O|my Re-|deem- er, leave me|not|
w: bil-|lows foam, O|my Re-|deem- er, safe- ly|bear|
"^Refrain" E | [EB]>[E=A] [EB]>[EA] [EB]3 [E=B] | [Ec]>[DB] [CA]>[DF] [CE]4 | %19
w: a-|lone. * * * * *||
w: a-|lone. Wher- ev- er I may|go, wher- ev- er I|
w: me|home. * * * * *||
 [DG]>[D^F] [DG]>[DF] [DG]3 [D=F] | [CF]>[CE] [A,C]>[DF] [CE]4 | %21
w: ||
w: may be, Thou in whom I|trust, O still a- bide|
w: ||
 [Ec]>[=D=B] [Ec]>[DB] [Ec]3 [E_B] | [FB]>[FA] [FA]>[DF] [Fd]3 [DF] | %23
w: ||
w: with me; Keep this heart of|mine and hide my life with|
w: ||
 [CE]2 [EA]2 [EG]>[EA] [Ac]>[GB] | B4 [EA]4 |] %25
w: ||
w: Thine, That I may ga- ther|with the|
w: ||
V:2
 x8 | x8 | (C2 E2) x4 | x8 | x8 | x8 | x8 | [DB]8 | x8 | x8 | (C2 E2) x4 | x8 | x8 | x4 F4 | x8 | %15
 x8 || E | x8 | x8 | x8 | x8 | x8 | x8 | x8 | (G2 E2) x4 |] %25
V:3
 [A,,A,]4 [A,,A,]2 [A,,A,]2 | [A,,A,]4 [A,,A,]4 | E,4 [B,,E,]2 [A,,A,]2 | [E,G,]8 | %4
 [A,,A,]4 [B,,E,]2 [A,,A,]2 | [D,A,]4 [D,A,]4 | [B,,B,]3 [B,,B,] [B,,A,]2 [B,,A,]2 | [E,G,]8 | %8
 [A,,A,]4 [A,,A,]2 [A,,A,]2 | [A,,A,]4 [A,,A,]4 | E,4 [B,,E,]2 [A,,A,]2 | [E,G,]8 | %12
 A,4 [E,G,]2 [F,A,]2 | (C2 B,2) [D,A,]4 | [E,G,]3 [E,A,] [E,B,]2 [E,G,]2 | [A,,A,]6 z2 || [E,G,] | %17
 [E,D]>[E,C] [E,D]>[E,C] [E,D]3 [E,G,] | [A,,A,]>[A,,A,] [A,,A,]>[A,,A,] [A,,A,]4 | %19
 [E,B,]>[E,=A,] [E,B,]>[E,A,] [E,B,]3 [E,G,] | [A,,A,]>[A,,A,] [A,,E,]>[A,,A,] [A,,A,]4 | %21
 A,>A, A,>A, A,3 [C,A,] | [D,A,]>[D,A,] [D,A,]>[D,A,] [D,A,]3 [D,A,] | %23
 [E,A,]2 [E,C]2 [E,B,]>[E,C] [E,E]>[E,D] | [E,D]4 [A,,C]4 |] %25
V:4
 x8 | x8 | (A,,2 C,2) x4 | x8 | x8 | x8 | x8 | x8 | x8 | x8 | (A,,2 C,2) x4 | x8 | A,4 x4 | %13
 C,4 x4 | x8 | x8 || x | x8 | x8 | x8 | x8 | A,>A, A,>A, A,3 x | x8 | x8 | x8 |] %25

